X:1
T:Title
%%score { ( 1 3 ) | ( 2 4 ) }
L:1/8
M:4/4
K:Eb
V:1 treble nm="Grand Piano"
V:3 treble 
V:2 bass 
V:4 bass 
V:1
 z4 z2[Q:1/4=100] [EG][FA] | [GB]3 [GB] [_G=A][=GB] [Ge]>[Ac] | [GB]6 G2 | F2 E2 A2 G2 | %4
[M:3/4] [DF]6 |[M:1/4] [DF]2 |[M:4/4] G3 A BG [Ge]>[Ac] | [GB]6 [Gc]2 | [Fd]2 [Ge]2 [Ec]3 [DB] | %9
[M:3/4] [DB]6 |[M:1/4] B2 |[M:4/4] [Ge]6 z2 | [GB]6 z2 | c2 c>c B2 A2 |[M:3/4] G6 |[M:1/4] G2 | %16
[M:4/4] F6 z2 | [DB-]4 B2 z2 | [Fd]3 [Ge] [Fd]2 [Ec]2 |[M:3/4] [B,B]6 |[M:1/4] [B,FB]2 | %21
[M:4/4] [Ge]6 z2 | [GB]6 z2 | c2 c>c d2 e2 |[M:3/4] f6 |[M:1/4] B2 |[M:4/4] [Ge]6 z2 | [Ec]6 z2 | %28
 d3 e f2 [Ad]2 |[M:7/8] e2- [Ae-]2 [Ge]3 |] %30
V:2
 z4 z2 [E,B,]2 | [E,E]3 [E,E] [E,E][E,E] [E,B,]>[E,E] | [E,E]6 [G,B,E]2 | %3
 [A,B,D]2 [G,B,]2 [F,B,D]2 [E,B,E]2 |[M:3/4] [B,,B,]6 |[M:1/4] [B,,B,]2 | %6
[M:4/4] [E,B,E]3 [F,B,E] [G,B,E][E,B,E] [E,B,]>[E,E] | [E,E]6 [E,B,]2 | %8
 [F,B,]2 [F,B,]2 [F,=A,]3 [B,,B,] |[M:3/4] [B,,B,]6 |[M:1/4] [B,A]2 | %11
[M:4/4] [E,B,]2 E,>E, E,2 z z/ D/ | E,2 E,>E, E,2 [G,B,E]2 | [A,E]2 [A,E]>[A,E] [G,B,E]2 [F,B,D]2 | %14
[M:3/4] [E,B,E]6 |[M:1/4] [E,B,E]2 |[M:4/4] [D,B,]2 D,2 [C,=A,][C,A,][C,F,][C,F,] | %17
 B,,2 F,2 [D,B,]2 [E,B,]2 | [F,B,]3 [F,B,] [F,B,]2 [F,=A,]2 |[M:3/4] B,,4 C,2 |[M:1/4] D,2 | %21
[M:4/4] [E,B,]2 E,>E, E,2 z z/ D/ | E,2 E,>E, E,2[K:treble] [G,B,E]2 | %23
 [A,E]2 [A,E]>[A,CE] [G,=B,F]2 [CG]2 |[M:3/4] [G,B,A]6 |[M:1/4] [B,A]2 | %26
[M:4/4][K:bass] [E,B,]2 E,2 E,_D,C,[B,,G,] | [A,,A,]2 C,2 E,2[K:treble] [A,CE]2 | %28
 [B,A]3 [B,CA] [B,DA]2[K:bass] [B,,B,]2 |[M:7/8] B,2 C2 B,3 |] %30
V:3
 x8 | x8 | x8 | x8 |[M:3/4] x6 |[M:1/4] x2 |[M:4/4] x8 | x8 | x8 |[M:3/4] x6 |[M:1/4] x2 | %11
[M:4/4] z2 B,>B, B,2 [CBd]>[Ac] | E2 E>E E2 B2 | x8 |[M:3/4] x6 |[M:1/4] x2 | %16
[M:4/4] z2 B,2 E[EF][EG][E=A] | B,2 B,2 F2 [Gc]2 | x8 |[M:3/4] D4 E2 |[M:1/4] x2 | %21
[M:4/4] z2 B,>B, B,2 [CBd]>[Ac] | E2 E>E E2 B2 | x8 |[M:3/4] x6 |[M:1/4] x2 | %26
[M:4/4] z2 B,2 B,[B,EG][A,EA][EB] | z2 A,2 A,2 e2 | x8 |[M:7/8] G2 z z z z2 |] %30
V:4
 x8 | x8 | x8 | x8 |[M:3/4] x6 |[M:1/4] x2 |[M:4/4] x8 | x8 | x8 |[M:3/4] x6 |[M:1/4] x2 | %11
[M:4/4] z4 z2 E,2 | x8 | x8 |[M:3/4] x6 |[M:1/4] x2 |[M:4/4] x8 | x8 | x8 |[M:3/4] x6 |[M:1/4] x2 | %21
[M:4/4] z4 z2 E,2 | x6[K:treble] x2 | x8 |[M:3/4] x6 |[M:1/4] x2 |[M:4/4][K:bass] x8 | %27
 x6[K:treble] x2 | x6[K:bass] x2 |[M:7/8] E,-E,-E,- E,- E,3 |] %30

